X:1
T:Requiescat
T:Joachim Kelecom (°1977)
T:Oscar Wilde (1854 - 1900)
T:for Maria
T:Requiescat
C:Joachim Kelecom (°1977)
Z:Oscar Wilde (1854 - 1900)
%%score [ 1 2 3 4 ]
L:1/8
Q:1/4=120
M:2/2
K:Gmin
V:1 treble nm="Soprano"
V:2 treble nm="Alto"
V:3 treble-8 nm="Tenor"
V:4 bass nm="Bass"
V:1
 z4 B4 | A2 G2 z4 | z4 c4 | B2 A2 z4 | z2 c2 e2 f2 | d8- | d8 :| e4 d2 c2 | B2 c2 A4 | G2 e4 f2 | %10
w: Tread|light- ly|she|is near|un- der the|snow,|_|All her bright|gold- en hair|tar- nish'd with|
w: Speak|gent- ly|she|can hear|the dais- ies|grow,|_||||
 d8 | f4 e2 d2 | f2 d2 B4 | A4 A2 A2 | !fermata!G8 ||!p! .e2 .e2 !tenuto!f4 | .e2 .d2 !tenuto!B4 | %17
w: rust,|She that was|young and fair|Fal- len to|dust.|Li- ly- like,|white as snow,|
w: |||||||
 e2 e2 f4 | e2 d2 B4 | .e2 .e2 !tenuto!f4 | .e2 .d2 !tenuto!B4 | e2 e2 f4 | e2 d2 B4 | %23
w: ||Li- ly- like,|white as snow,|||
w: ||||||
 .e2 .e2 !tenuto!f4 |"^rit." .e2 .d2 !tenuto!B4 || z8 | z8 |"^a tempo" z8 | z8 | z8 | z8 | %31
w: Li- ly- like,|white as snow,|||||||
w: ||||||||
!mf! =B^c B4 Bc | =B4 B4 | ^f2 =e2 ^c4 | z8 || z8 | z8 |!pp! !fermata!G8 | %38
w: cof- fin board, hea- vy|stone lie|on her breast||||She|
w: |||||||
 !fermata!B4 !fermata!c4 | !fermata!d8"^a tempo" || z4 B4 | (A2 G2) z4 | z4 c4 | B2 A2 z4 | %44
w: is at|rest.|Peace,|peace, _|She|can't hear|
w: ||||||
 z2 (c2 e2) f2 | d2 d6!p! | g2 f2 g4 | d4 e2 f2 | (d4 B4) | (A4 e4) | d4 c4 | d2 d6- | d8- | d8 |] %54
w: lyre _ or|son- net|All my life|is bur- ied|here, _|heap _|earth u-|pon it.|_||
w: ||||||||||
V:2
 z4 G4 | G2 G2 z4 | z4 F4 | F2 F2 z4 | z2 G2 c2 d2 | c8- | B8 :| z2 G2 G2 A2 | B2 A2 G4 | %9
w: Tread|light- ly|she|is near|un- der the|snow,|_|All her bright|gold- en hair|
w: Speak|gent- ly|she|can hear|the dais- ies|grow,|_|||
 G4 B2 B2 | A8 | z2 B2 B2 B2 | A2 G2 F4 | E4 D2 D2 | !fermata!B,8 ||!p! .c2 .c2 !tenuto!B4 | %16
w: tar- nish'd with|rust,|She that was|young and fair|Fal- len to|dust.|Li- ly- like,|
w: |||||||
 .c2 .A2 !tenuto!G4 | c2 c2 B4 | c2 A2 G4 | .c2 .c2 !tenuto!B4 | .c2 .A2 !tenuto!G4 | c2 c2 B4 | %22
w: white as snow,|||Li- ly- like,|white as snow,||
w: ||||||
 c2 A2 G4 | .c2 .c2 !tenuto!B4 |"^rit." .c2 .A2 !tenuto!G4 || z8 | z8 | %27
w: |Li- ly- like,|white as snow,|||
w: |||||
"^a tempo"!p! .^F2 .F2 !tenuto!G4 | .^F2 .F2 !tenuto!G4 | ^F2 F2 G4 | ^F2 F2 G4 | %31
w: coff- in board,|hea- vy stone,|||
w: ||||
 .^F2 .F2 !tenuto!G4 | .^F2 .F2 !tenuto!G4 | ^F2 F2 G4 | ^F2 F2 G4 || z8 | z8 |!pp! !fermata!D8 | %38
w: coff- in board,|hea- vy stone,|||||She|
w: |||||||
 !fermata!D4 !fermata!F4 | !fermata!F8 || z4 G4 | G2- G2 z4 | z4 F4 | F2 F2 z4 | z2 (G2 c2) d2 | %45
w: is at|rest.|Peace,|peace, _|She|can't hear|lyre _ or|
w: |||||||
 c2 B6!p! | (D4 E4 | F8) | (F8 | E8 | F8 | F8) | (F8 | G8) |] %54
w: son- net|ae- *||ter-||||nam.|_|
w: |||||||||
V:3
 G8- | G8 | A8- | A8 | G8 | G8- | G8 :| G8- | G8- | G8 | A8 | G8 | G8- | G8- | !fermata!G8 || z8 | %16
w: Re-||e-||qui-|em|_|Re-|||e-|qui-|em|_|||
 z8 | z8 | z8 |!mf! (G4 g4) | f2 g2 d4 | d4 B2 d2 | f2 f4 d2- | d2 g4 e2- |"^rit." e2 c2 g4 || z8 | %26
w: |||She _|hard- ly knew|she was a|wo- man, so|_ sweet- ly|_ she grew,||
 z8 |"^a tempo"!p! .^f2 .d2 !tenuto!^c4 | .^c2 .d2 !tenuto!=e4 | ^f2 d2 ^c4 | ^c2 d2 =e4 | %31
w: |coff- in board,|hea- vy stone,|||
 .^f2 .d2 !tenuto!^c4 | .^c2 .d2 !tenuto!=e4 | ^f2 d2 ^c4 | ^c2 d2 =e4 || z8 | z8 | %37
w: cof- fin board,|hea- vy stone,|||||
!pp! !fermata!B8 | !fermata!B4 !fermata!A4 | !fermata!B8 || G8- | G8 | A8- | A8 | G8 | G8!p! | %46
w: She|is at|rest.|Re-||e-||qui-|em|
 e2 d2 c4 | B4 B2 B2 | A8 | (A4 c4) | d4 e4 | f2 (f6 | g8-) | g8 |] %54
w: All my life|is bur- ied|here,|heap _|earth u-|pon it.|_||
V:4
 z8 | z8 | z8 | z8 | z8 | z8 | z8 :| z2 C,2 B,,2 A,,2 | G,,2 F,,2 C,4 | D,2 D,2 D,4 | E,8 | %11
w: |||||||All her bright|gold- en hair|tar- nish'd with|rust,|
 z2 B,,2 C,2 E,2 | D,2 B,,2 G,,4 | C,4 D,2 D,,2 | !fermata!G,,8 || z8 | z8 | z8 | z8 |!p! G,,8- | %20
w: She that was|young and fair|Fal- len to|dust.|||||Do-|
 G,,8- | G,,8- | G,,8- | G,,8- |"^rit." G,,8 || !fermata!A,,8 | !fermata!=B,,8 |"^a tempo" (=B,,8 | %28
w: |||||[o]-||na|
 A,,8) | =B,,8- | B,,8- | (B,,8 | (D,8) | (=B,,8) | A,,8) || =B,,2 B,,4 A,,2 | =B,,2 E,2 D,4 | %37
w: _|e-||i|_|||I vex my|heart a- lone:|
!pp! !fermata!G,8 | !fermata!G,4 !fermata!F,4 | !fermata!B,,8 || z8 | z8 | z8 | z8 | z8 | z8!p! | %46
w: She|is at|rest.|||||||
 (G,,4 A,,4 | B,,8) | (B,,8 | A,,8 | G,,8 | A,,8) | (A,,8 | G,,8) |] %54
w: ae- *||ter-||||nam.|_|

